X:1
T:[ID 7-67]
T:[ID 7-67]
T:Bezeichnung standardisiert: Menuett [Incipits von Menuetten, nummeriert] \"Ahnlich in dieser Quelle: ID 2-6;
T:Urheber unbekannt Datum in der hier transkribierten schriftlichen Quelle: 1776 - 1791
C:Urheber unbekannt
C:Datum in der hier transkribierten schriftlichen Quelle: 1776 - 1791
L:1/8
M:3/4
K:D
V:1 treble 
V:1
"^No 1." d4 cd | e2 dc d2 ||"^No 2." d4 A2 | F>DF>A d2 ||"^No 3." d2 AGFE | D2 f4 || %6
"^No 4." a2 fdec | d3 efg ||"^No 5." f4 g2 a | f d2 f2 ||"^No 6." defdge | a3 g f2 || %12
"^No 7." d2 d2 de | d4 (3efg ||"^No 8." .df .a2 a2 | a2 fdfa ||"^No 9." a4 fd | Aceg f2 || %18
"^No 10." D2 F2 A2 | d3 efg ||"^No 11." D2 D2 D2 | A3 F D2 ||"^No 12." d4 (3fed | d2 A2 F2 || %24

